X:23
T:Dancing Bear
C:Bob McQuillen
S:Bernie Waugh
R:Reel
M:4/4
L:1/8
K:Em
|:\
"Em"EFGF EFGF|EFGAG2E2|"A"EFGF EFGF|EFGAG2E2|
"Em"EFGF EFGF|EFGAB2e2|"B"B2BcBAGF|"Em"G2E2E4:|
|:\
"Em"e2ef gfef|gfe2e4|"A"e2ef gfef|gfe2e4|
"C"e2ef gfef|gfed edBA|"B"BABc BAGF|"Em"G2E2 E4:|

